packages/icons/raw/imported/SportDarts.svg

<svg width="32" height="32" viewBox="0 0 32 32" fill="none" xmlns="http://www.w3.org/2000/svg">
<path d="M18.5215 8.73583C16.6003 7.86013 14.3675 7.63407 12.1909 8.26276C7.28553 9.6796 4.45373 14.8247 5.86096 19.7635C7.2682 24.7023 12.3784 27.5534 17.2837 26.1366C22.1891 24.7197 25.0209 19.5747 23.6137 14.6359C23.4751 14.1495 23.3065 13.6908 23.0999 13.2552M17.3824 11.0909C16.0194 10.489 14.4448 10.3399 12.9092 10.7835C9.38736 11.8007 7.35426 15.4946 8.36459 19.0404C9.37491 22.5862 13.0438 24.6332 16.5656 23.616C20.0874 22.5987 22.1205 18.9049 21.1101 15.359C21.0297 15.0769 20.9353 14.8077 20.8237 14.5497M18.6114 16.0625C19.2264 18.2209 17.9888 20.4694 15.845 21.0886C13.7012 21.7078 11.4679 20.4618 10.8529 18.3034C10.2379 16.145 11.4755 13.8964 13.6193 13.2772C14.329 13.0723 15.0472 13.0759 15.7155 13.2486M14.737 17.1997L20.4836 11.5272M20.6879 11.317L23.5696 11.253C23.6984 11.2502 23.8209 11.1964 23.9107 11.1034L26.472 8.44902C26.5335 8.38531 26.4867 8.27864 26.3986 8.28146L23.8158 8.36402C23.7243 8.36694 23.6463 8.29786 23.6375 8.20614L23.3865 5.58942C23.3785 5.50574 23.2769 5.46976 23.2186 5.52995L20.7636 8.0648C20.6717 8.15974 20.6215 8.28793 20.6244 8.4205L20.6879 11.317Z" stroke="black" stroke-miterlimit="10" stroke-linecap="round"/>
</svg>

<svg width="32" height="32" fill="none" xmlns="http://www.w3.org/2000/svg"><path d="M18.521 8.736a9.125 9.125 0 0 0-6.33-.473c-4.905 1.417-7.737 6.562-6.33 11.5 1.407 4.94 6.517 7.79 11.423 6.374 4.905-1.417 7.737-6.562 6.33-11.501a8.896 8.896 0 0 0-.514-1.38m-5.718-2.165a6.549 6.549 0 0 0-4.473-.307c-3.522 1.017-5.555 4.71-4.544 8.256 1.01 3.546 4.679 5.593 8.2 4.576 3.522-1.017 5.555-4.711 4.545-8.257a6.566 6.566 0 0 0-.286-.81m-2.213 1.514c.615 2.158-.622 4.406-2.766 5.026-2.144.619-4.377-.627-4.992-2.786-.615-2.158.623-4.407 2.766-5.026a3.955 3.955 0 0 1 2.097-.028m-.979 3.95 5.747-5.672m.204-.21 2.882-.064a.489.489 0 0 0 .34-.15l2.562-2.654a.099.099 0 0 0-.073-.168l-2.583.083a.174.174 0 0 1-.178-.158l-.252-2.617a.098.098 0 0 0-.167-.06l-2.455 2.536a.496.496 0 0 0-.14.356l.064 2.896Z" stroke="#000" stroke-miterlimit="10" stroke-linecap="round"/></svg>
